images/brand4.svg

<svg fill="none" height="127" viewBox="0 0 423 127" width="423" xmlns="http://www.w3.org/2000/svg"><path d="m225.842 90.5061c0-1.296.336-3.576 1.008-6.84l3.816-19.44h-4.248l.288-2.16c5.76-1.728 11.424-4.704 16.992-8.928h3.456l-1.728 7.848h5.616l-.648 3.24h-5.544l-3.672 19.44c-.624 2.976-.936 4.968-.936 5.976 0 2.304 1.008 3.696 3.024 4.176-.48 1.632-1.584 2.928-3.312 3.888s-3.816 1.44-6.264 1.44-4.368-.768-5.76-2.304-2.088-3.648-2.088-6.336zm47.399-13.032c1.728-3.072 2.592-6.168 2.592-9.288 0-2.064-.744-3.096-2.232-3.096-1.152 0-2.328.984-3.528 2.952-1.248 1.968-2.064 4.224-2.448 6.768l-3.744 22.896-14.904 1.44 7.344-38.16 11.88-1.44-1.296 7.272c2.352-4.848 6.168-7.272 11.448-7.272 2.784 0 4.92.72 6.408 2.16 1.536 1.44 2.304 3.648 2.304 6.624 0 2.928-.984 5.328-2.952 7.2-1.92 1.872-4.536 2.808-7.848 2.808-1.44 0-2.448-.288-3.024-.864zm30.707 21.672c-10.56 0-15.84-4.968-15.84-14.904 0-7.056 1.944-12.864 5.832-17.424 4.128-4.848 9.768-7.272 16.92-7.272 5.184 0 9.096 1.2 11.736 3.6s3.96 6.12 3.96 11.16c0 7.68-2.064 13.752-6.192 18.216-4.032 4.416-9.504 6.624-16.416 6.624zm1.872-31.32c-.576 1.296-1.104 2.928-1.584 4.896-.432 1.92-.936 4.416-1.512 7.488s-.864 6.504-.864 10.296c0 1.248.192 2.28.576 3.096.432.816 1.2 1.224 2.304 1.224s1.992-.264 2.664-.792c.72-.528 1.344-1.416 1.872-2.664.96-2.208 1.824-5.352 2.592-9.432.768-4.128 1.176-7.08 1.224-8.856.096-1.776.144-3.312.144-4.608 0-1.344-.192-2.448-.576-3.312s-1.128-1.296-2.232-1.296c-1.056 0-1.944.336-2.664 1.008s-1.368 1.656-1.944 2.952zm40.667 31.32c-10.56 0-15.84-4.968-15.84-14.904 0-7.056 1.944-12.864 5.832-17.424 4.128-4.848 9.768-7.272 16.92-7.272 5.184 0 9.096 1.2 11.736 3.6s3.96 6.12 3.96 11.16c0 7.68-2.064 13.752-6.192 18.216-4.032 4.416-9.504 6.624-16.416 6.624zm1.872-31.32c-.576 1.296-1.104 2.928-1.584 4.896-.432 1.92-.936 4.416-1.512 7.488s-.864 6.504-.864 10.296c0 1.248.192 2.28.576 3.096.432.816 1.2 1.224 2.304 1.224s1.992-.264 2.664-.792c.72-.528 1.344-1.416 1.872-2.664.96-2.208 1.824-5.352 2.592-9.432.768-4.128 1.176-7.08 1.224-8.856.096-1.776.144-3.312.144-4.608 0-1.344-.192-2.448-.576-3.312s-1.128-1.296-2.232-1.296c-1.056 0-1.944.336-2.664 1.008s-1.368 1.656-1.944 2.952zm58.523 24.984c-2.016 2.016-4.416 3.576-7.2 4.68-2.736 1.104-5.472 1.656-8.208 1.656s-4.584-.24-5.544-.72l-2.232 12.2399-14.616 1.44 9.936-51.1199 11.736-1.224-.936 4.968c2.016-3.408 5.112-5.112 9.288-5.112 4.704 0 8.304 1.512 10.8 4.536 2.208 2.736 3.312 6.192 3.312 10.368s-.552 7.752-1.656 10.728-2.664 5.496-4.68 7.56zm-20.088.864c1.008.864 2.136 1.296 3.384 1.296s2.232-.24 2.952-.72 1.344-1.2 1.872-2.16c1.44-2.592 2.736-7.824 3.888-15.696.336-2.304.504-4.584.504-6.84s-.264-3.744-.792-4.464c-.48-.72-1.2-1.08-2.16-1.08-2.928 0-4.872 2.856-5.832 8.568z" fill="#45454e"/><path clip-rule="evenodd" d="m126.338.498535c18.651 0 34.465 13.425265 39.964 32.009665 23.227 3.539 41.002 23.2165 41.002 46.9607 0 26.2491-21.723 47.5281-48.52 47.5281-.433 0-.864-.006-1.294-.017h-109.8884c-.4459.013-.8934.02-1.3424.02-25.4239 0-46.034102-21.28-46.034102-47.5295 0-24.5107 17.969702-44.688 41.048902-47.2539 7.1309-14.4378 20.9919-24.2322 36.9227-24.2322 6.9571 0 13.5194 1.86793 19.2989 5.1748 7.5274-7.84929 17.6764-12.660665 28.8424-12.660665z" fill="#2c7f65" fill-rule="evenodd"/><path d="m3.24609 83.3615c2.68079 8.5785 13.13001 12.8288 21.87281 12.8288 18.3599 0 41.6949-22.4514 54.2054-19.6713 15.737 3.4971 17.2202 20.3519 22.5497 30.84 7.944 15.635 29.9 17.312 35.348 17.312 2.921 0-5.46-1.871-15.192-9.41-12.497-9.682-8.882-42.5399-8.882-42.5399s10.578-2.3073 15.885 14.0134c2.318 7.1315-5.766 18.7085-2.203 17.1215 11.014-4.906 14.538-24.6518 24.63-30.6813 5.041-3.0116 19.2-2.0737 22.93-2.0737 1.77 0 3.109-1.9939 2.161-2.6413-3.431-2.343-26.529-26.1589-26.529-24.1788 0 1.0837-1.169 6.6729 8.16 13.6912 2.533 1.9057-4.382 5.0131-6.722 5.2714-13.964 1.5423-20.772-32.1871-49.586-30.5616-1.78.1004-15.604-2.1462-36.9784 20.8904-9.4514 10.1865-27.0996 33.1622-41.0604 35.5376-13.96077 2.3755-20.58911-5.7484-20.58911-5.7484z" fill="#fff"/></svg>

<svg width="423" height="127" viewBox="0 0 423 127" fill="none" xmlns="http://www.w3.org/2000/svg">
<path d="M225.842 90.5061C225.842 89.2101 226.178 86.9301 226.85 83.6661L230.666 64.2261H226.418L226.706 62.0661C232.466 60.3381 238.13 57.3621 243.698 53.1381H247.154L245.426 60.9861H251.042L250.394 64.2261H244.85L241.178 83.6661C240.554 86.6421 240.242 88.6341 240.242 89.6421C240.242 91.9461 241.25 93.3381 243.266 93.8181C242.786 95.4501 241.682 96.7461 239.954 97.7061C238.226 98.6661 236.138 99.1461 233.69 99.1461C231.242 99.1461 229.322 98.3781 227.93 96.8421C226.538 95.3061 225.842 93.1941 225.842 90.5061ZM273.241 77.4741C274.969 74.4021 275.833 71.3061 275.833 68.1861C275.833 66.1221 275.089 65.0901 273.601 65.0901C272.449 65.0901 271.273 66.0741 270.073 68.0421C268.825 70.0101 268.009 72.2661 267.625 74.8101L263.881 97.7061L248.977 99.1461L256.321 60.9861L268.201 59.5461L266.905 66.8181C269.257 61.9701 273.073 59.5461 278.353 59.5461C281.137 59.5461 283.273 60.2661 284.761 61.7061C286.297 63.1461 287.065 65.3541 287.065 68.3301C287.065 71.2581 286.081 73.6581 284.113 75.5301C282.193 77.4021 279.577 78.3381 276.265 78.3381C274.825 78.3381 273.817 78.0501 273.241 77.4741ZM303.948 99.1461C293.388 99.1461 288.108 94.1781 288.108 84.2421C288.108 77.1861 290.052 71.3781 293.94 66.8181C298.068 61.9701 303.708 59.5461 310.86 59.5461C316.044 59.5461 319.956 60.7461 322.596 63.1461C325.236 65.5461 326.556 69.2661 326.556 74.3061C326.556 81.9861 324.492 88.0581 320.364 92.5221C316.332 96.9381 310.86 99.1461 303.948 99.1461ZM305.82 67.8261C305.244 69.1221 304.716 70.7541 304.236 72.7221C303.804 74.6421 303.3 77.1381 302.724 80.2101C302.148 83.2821 301.86 86.7141 301.86 90.5061C301.86 91.7541 302.052 92.7861 302.436 93.6021C302.868 94.4181 303.636 94.8261 304.74 94.8261C305.844 94.8261 306.732 94.5621 307.404 94.0341C308.124 93.5061 308.748 92.6181 309.276 91.3701C310.236 89.1621 311.1 86.0181 311.868 81.9381C312.636 77.8101 313.044 74.8581 313.092 73.0821C313.188 71.3061 313.236 69.7701 313.236 68.4741C313.236 67.1301 313.044 66.0261 312.66 65.1621C312.276 64.2981 311.532 63.8661 310.428 63.8661C309.372 63.8661 308.484 64.2021 307.764 64.8741C307.044 65.5461 306.396 66.5301 305.82 67.8261ZM346.487 99.1461C335.927 99.1461 330.647 94.1781 330.647 84.2421C330.647 77.1861 332.591 71.3781 336.479 66.8181C340.607 61.9701 346.247 59.5461 353.399 59.5461C358.583 59.5461 362.495 60.7461 365.135 63.1461C367.775 65.5461 369.095 69.2661 369.095 74.3061C369.095 81.9861 367.031 88.0581 362.903 92.5221C358.871 96.9381 353.399 99.1461 346.487 99.1461ZM348.359 67.8261C347.783 69.1221 347.255 70.7541 346.775 72.7221C346.343 74.6421 345.839 77.1381 345.263 80.2101C344.687 83.2821 344.399 86.7141 344.399 90.5061C344.399 91.7541 344.591 92.7861 344.975 93.6021C345.407 94.4181 346.175 94.8261 347.279 94.8261C348.383 94.8261 349.271 94.5621 349.943 94.0341C350.663 93.5061 351.287 92.6181 351.815 91.3701C352.775 89.1621 353.639 86.0181 354.407 81.9381C355.175 77.8101 355.583 74.8581 355.631 73.0821C355.727 71.3061 355.775 69.7701 355.775 68.4741C355.775 67.1301 355.583 66.0261 355.199 65.1621C354.815 64.2981 354.071 63.8661 352.967 63.8661C351.911 63.8661 351.023 64.2021 350.303 64.8741C349.583 65.5461 348.935 66.5301 348.359 67.8261ZM406.882 92.8101C404.866 94.8261 402.466 96.3861 399.682 97.4901C396.946 98.5941 394.21 99.1461 391.474 99.1461C388.738 99.1461 386.89 98.9061 385.93 98.4261L383.698 110.666L369.082 112.106L379.018 60.9861L390.754 59.7621L389.818 64.7301C391.834 61.3221 394.93 59.6181 399.106 59.6181C403.81 59.6181 407.41 61.1301 409.906 64.1541C412.114 66.8901 413.218 70.3461 413.218 74.5221C413.218 78.6981 412.666 82.2741 411.562 85.2501C410.458 88.2261 408.898 90.7461 406.882 92.8101ZM386.794 93.6741C387.802 94.5381 388.93 94.9701 390.178 94.9701C391.426 94.9701 392.41 94.7301 393.13 94.2501C393.85 93.7701 394.474 93.0501 395.002 92.0901C396.442 89.4981 397.738 84.2661 398.89 76.3941C399.226 74.0901 399.394 71.8101 399.394 69.5541C399.394 67.2981 399.13 65.8101 398.602 65.0901C398.122 64.3701 397.402 64.0101 396.442 64.0101C393.514 64.0101 391.57 66.8661 390.61 72.5781L386.794 93.6741Z" fill="#45454E"/>
<path fill-rule="evenodd" clip-rule="evenodd" d="M126.338 0.498535C144.989 0.498535 160.803 13.9238 166.302 32.5082C189.529 36.0472 207.304 55.7247 207.304 79.4689C207.304 105.718 185.581 126.997 158.784 126.997C158.351 126.997 157.92 126.991 157.49 126.98H47.6016C47.1557 126.993 46.7082 127 46.2592 127C20.8353 127 0.225098 105.72 0.225098 79.4705C0.225098 54.9598 18.1948 34.7825 41.274 32.2166C48.4049 17.7788 62.2659 7.9844 78.1967 7.9844C85.1538 7.9844 91.7161 9.85233 97.4956 13.1592C105.023 5.30991 115.172 0.498535 126.338 0.498535Z" fill="#2C7F65"/>
<path d="M3.24609 83.3615C5.92688 91.94 16.3761 96.1903 25.1189 96.1903C43.4788 96.1903 66.8138 73.7389 79.3243 76.519C95.0613 80.0161 96.5445 96.8709 101.874 107.359C109.818 122.994 131.774 124.671 137.222 124.671C140.143 124.671 131.762 122.8 122.03 115.261C109.533 105.579 113.148 72.7211 113.148 72.7211C113.148 72.7211 123.726 70.4138 129.033 86.7345C131.351 93.866 123.267 105.443 126.83 103.856C137.844 98.95 141.368 79.2042 151.46 73.1747C156.501 70.1631 170.66 71.101 174.39 71.101C176.16 71.101 177.499 69.1071 176.551 68.4597C173.12 66.1167 150.022 42.3008 150.022 44.2809C150.022 45.3646 148.853 50.9538 158.182 57.9721C160.715 59.8778 153.8 62.9852 151.46 63.2435C137.496 64.7858 130.688 31.0564 101.874 32.6819C100.094 32.7823 86.27 30.5357 64.8956 53.5723C55.4442 63.7588 37.796 86.7345 23.8352 89.1099C9.87443 91.4854 3.24609 83.3615 3.24609 83.3615Z" fill="white"/>
</svg>
